material/.icons/material/bank-minus.svg

<svg xmlns="http://www.w3.org/2000/svg" viewBox="0 0 24 24"><path d="M14 17h8v2h-8v-2M11.5 1L21 6v2H2V6l9.5-5m4.5 9h3v2.08L18 12c-.7 0-1.37.12-2 .34V10M2 22v-3h10.08c.19 1.14.71 2.17 1.45 3H2m8-12h3v4.68c-.46.69-.78 1.47-.92 2.32H10v-7m-6 0h3v7H4v-7z"/></svg>

<?xml version="1.0" encoding="UTF-8"?><!DOCTYPE svg PUBLIC "-//W3C//DTD SVG 1.1//EN" "http://www.w3.org/Graphics/SVG/1.1/DTD/svg11.dtd"><svg xmlns="http://www.w3.org/2000/svg" xmlns:xlink="http://www.w3.org/1999/xlink" version="1.1" id="mdi-bank-minus" width="24" height="24" viewBox="0 0 24 24"><path d="M14,17H22V19H14V17M11.5,1L21,6V8H2V6L11.5,1M16,10H19V12.08L18,12C17.3,12 16.63,12.12 16,12.34V10M2,22V19H12.08C12.27,20.14 12.79,21.17 13.53,22H2M10,10H13V14.68C12.54,15.37 12.22,16.15 12.08,17H10V10M4,10H7V17H4V10Z" /></svg>
